icons/portfolio/ruble.svg

<svg width="14" height="14" viewBox="0 0 14 14" fill="none" xmlns="http://www.w3.org/2000/svg">
<path d="M7.87867 3.51465H5.68204C5.45553 3.51465 5.27189 3.69829 5.27189 3.9248V7.02922H4.80341C4.57689 7.02922 4.39325 7.21286 4.39325 7.43938C4.39325 7.66589 4.57689 7.84953 4.80341 7.84953H5.27189V8.78652H4.80341C4.57689 8.78652 4.39325 8.97016 4.39325 9.19668C4.39325 9.42319 4.57689 9.60684 4.80341 9.60684H5.27189V10.5146C5.27189 10.7412 5.45553 10.9248 5.68204 10.9248C5.90856 10.9248 6.0922 10.7412 6.0922 10.5146V9.60684H7.87867C8.10519 9.60684 8.28883 9.42319 8.28883 9.19668C8.28883 8.97016 8.10519 8.78652 7.87867 8.78652H6.0922V7.84953H7.87867C9.07381 7.84953 10.0461 6.87722 10.0461 5.68208C10.0461 4.45741 9.04852 3.51465 7.87867 3.51465ZM7.87867 7.02922H6.0922V4.33496H7.87867C8.61701 4.33496 9.22582 4.93051 9.22582 5.68211C9.22579 6.42493 8.62149 7.02922 7.87867 7.02922Z" fill="#429CC2"/>
<path d="M7 0C3.14018 0 0 3.14018 0 7C0 10.8598 3.14018 14 7 14C10.8598 14 14 10.8598 14 7C14 3.14018 10.8598 0 7 0ZM7 13.1797C3.5925 13.1797 0.820312 10.4075 0.820312 7C0.820312 3.5925 3.5925 0.820312 7 0.820312C10.4075 0.820312 13.1797 3.5925 13.1797 7C13.1797 10.4075 10.4075 13.1797 7 13.1797Z" fill="#429CC2"/>
</svg>

<svg xmlns="http://www.w3.org/2000/svg" fill="none" viewBox="0 0 14 14"><path fill="#429CC2" d="M7.879 3.515H5.682a.41.41 0 0 0-.41.41v3.104h-.469a.41.41 0 0 0 0 .82h.469v.938h-.469a.41.41 0 0 0 0 .82h.469v.908a.41.41 0 1 0 .82 0v-.908H7.88a.41.41 0 0 0 0-.82H6.092V7.85H7.88a2.167 2.167 0 1 0 0-4.335zm0 3.514H6.092V4.335H7.88a1.346 1.346 0 1 1 0 2.694z"/><path fill="#429CC2" d="M7 0C3.14 0 0 3.14 0 7s3.14 7 7 7 7-3.14 7-7-3.14-7-7-7zm0 13.18A6.187 6.187 0 0 1 .82 7 6.187 6.187 0 0 1 7 .82 6.187 6.187 0 0 1 13.18 7 6.187 6.187 0 0 1 7 13.18z"/></svg>
